X:146
T:Minuette
O:No 146 William Clarke of Feltwell
M:3/4
L:1/8
K:D
d3fe2|e3gf2|d2e2f2|g2e2z2|gfedcB|A4 Bc|dgf2!trill!e2|d6:||
a2abag|f2fefa|g2g3f|fedcBA|d2d/c/d/e/d2|B2B/A/B/c/ B2|efgefd|
cdecBA|d3fe2|e3gf2|d2e2f2|g2e2z2|gfedcB|A4Bc|dgf2!trill!e2|d6:||
FA dddd|GB eeee|FAd3f|fedcBA |FA dddd|GB eeee|FA d2c2|d6:||
A4Bc|d4fd|A4GF|FE E4|A4 Bc| d4 fd|(Aa)(ag)(gf)|f2e2z2|(FA) dddd|(GB) eeee|FA d3f|
fedcBA|FA dddd|GB eeee|FA d2 c2| d6:||

